X:1
T:William Byrd ~1540 - 1623
T:Viderunt omnes
%%score [ 1 2 3 4 ]
L:1/8
Q:1/4=200
M:4/4
K:C
V:1 treble nm="Cantus primus"
V:2 treble nm="Cantus secundus"
V:3 treble nm="Tenor"
V:4 treble nm="Bassus"
V:1
"^Q""^:" x2 x2 ||[K:F] D8 B12 | A4 A8 A8 | A6 B2 x8 | c6 B2 A2 G2 F2 E2 x4 | D4 z2 D2 F6 E2 x4 | %6
w: |Vi- de-|runt o- mnes|fi- nes|ter- * * * * *|rae, * * *|
w: |||||* vi- de- runt|
 F6 E2 D4 C4 | C8 A,4 C8 | D2 E2 F8 E8 | z8 x8 |[M:4/2] z16 x4 | z2 E4 F2 G4 F4 | E2 D2 D8 ^C4 | %13
w: |* * fi-|nes * ter- rae.|||sa- lu- ta- re|De- i no- *|
w: o- mnes fi- nes|ter- rae, *||||||
 D2 D4 C2 B,2 C2 D2 E2 x4 | F8 z4 A8 | B4 c8 x4 | B4 A6 G2 G8 | ^F4 G4 C4 D4 x2 | F8 G4 A16 | %19
w: stri, De- i no * * *|stri, sa-|lu ta-|re De- i no-|* stri, De- i|no- * *|
w: ||||||
"B" x16 x12 |] x16 |] %21
w: ||
w: ||
V:2
"^Q""^:" x2 x2 ||[K:F] z8 D8 x4 | F12 E4 x4 | F4 C4 E4 F4 | E8 A,4 D8 | d8 ^c4 d4 x4 | %6
w: |Vi-|de- runt|o- mnes fi- nes|ter- rae, *||
w: ||||* * vi-|de- runt o-|
 A4 A2 B2 x4- x4 | x2 B2 A8 G4 x4 | A16 x4 | z4 A8 c4 |[M:4/2] B4 A4 G6 F2 x4 | E8 D8 | z8 G6 A2 | %13
w: |||sa- lu-|ta- re De- i|no- stri,||
w: mnes fi- nes ter-||rae,||||sa- lu-|
 B4 A4 G4 F4 x4 | A8 G4 F6 x2 | E2 D4 C6 D2 x2 | _E2 D2 E2 F2 D8 x4 | A6 B2 c8 x2 | %18
w: |* * De-|* i no- *|* * * * stri,|sa- lu- ta-|
w: ta- re De- i|no- stri, *||||
 B4 A6 G2 G8 x8 | ^F2 E2 !courtesy!^F8"G" x16 |] x16 |] %21
w: re De- i no|||
w: |||
V:3
"^Q""^:" x2 x2 ||[K:F][K:treble-8] z8 G8 x4 | d12 ^c4 x4 | d4 A4 c4 d4 | A8 f12 | d4 z8 D8 | %6
w: |Vi-|de- runt|o- mnes fi- nes,|vi- de-|runt, vi-|
w: ||||||
 f8 x8 | e4 f6 e2 e8 | d2 ^c2 d4 A2 =B2 c8 | e6 f2 x8 |[M:4/2][K:treble-8] g4 f4 e2 d2 d8 | %11
w: de-|runt o- mnes fi-|nes ter * * * rae,|sa- lu-|ta- re De- i no-|
w: |||||
 ^c4 d2 G4 A2 B4 | A2 A4 G2 x4- x4 | x4 ^F4 G4 z4 x4 | A6 B2 c6 B2 x4 | A2 G2 G8 ^F4 | %16
w: * stri, * * *|||sa- lu- ta- re|De- i no- *|
w: * * sa- lu- ta-|re De- i no-|* stri,|||
 G4 c8 B4 x4 | A8 G4 A6 | G2 F2 E2 D4 B4 A4 x10 | d6 c2 A4"D" x16 |] x16 |] %21
w: stri, De- i|no- stri, sa-|lu- ta- re De- i no-|||
w: |||||
V:4
"^Q""^:""^Q" x2 x2 ||[K:F][K:bass] z16 x4 | z16 x4 | z16 | z8 D,8 x4 | B,12 A,4 x4 | A,8 A,8 | %7
w: ||||vi-|de- runt|o- mnes|
w: |||||||
 A,6 B,2 C6 B,2 x4 | A,2 G,2 F,2 E,2 D,8 x4 | A,,16 |[M:4/2] z8 G,12 | A,4 B,6 A,2 G,4 | %12
w: fi- nes ter- *||rae,|sa-|lu- ta- re De-|
w: |||||
 F,4 E,8 x4 | D,8 z4 D,8 | F,4 E,4 D,4 C,4 x4 | B,,4 A,,8 x4 | G,,2 G,4"^(  )" F,2 G,8 x4 | %17
w: i no-|stri, *|||* De- i no-|
w: |* sa-|lu- ta- re De-|i no-|stri, * * *|
 D,8 _E,4 F,4 x2 | D,6 C,2 B,,4 G,,4 x12 | D,16 x12 |]"E" x16 |] %21
w: stri, sa- lu-|ta- re De- i|no-||
w: ||||

